X: 14
T:She is Gone
M:4/4
L:1/8
Q:140
C:Words and music by Catherine Faber
A:Filk
D:On the tape, "Acts of Creation"
W:She is dressed for sin, in a blouse so thin,
W:With her hair like sunlit flame.
W:Fifteen years old, looking scared and cold,
W:And Candy is her name.
W:Now a man drives by with a hungry eye
W:And a fifty dollar note
W:And he drives her out, down a country route,
W:With a jack-knife in his coat.
W:Chorus:
W:She is gone, she is gone,
W:And the earth closed over her head;
W:Like the ones before, just a worthless whore,
W:Selling sin to buy her bread.
K:F
"Verse:" z6 A, C|D2 C2 D2 D E|F2 G2 E2 F G|A3 A AG F2|G4 z2 A2|
A2 GA D2 D E|F2 EF A,2 z A,|C3 C CD E2|D6 A, C|
D2 E2 F2 D E|F2 G2 E2 F G|A3 B AG F2|D4 z2 F G|
A2 F2 G2 F G|A2 F2 G2 F E| F D3 D C3|D6 "Chorus:" D C|
D6 A B| G6 F G|A3 B A G F2|E6 A, C|
D2 C2 D2 D F|A2 B2 G2 F E|D3 D FG E2|D6||
